X:3387
T:Cook in the kitchen
S:sessions
R:Jig
O:Ireland
M:6/8
K:G
E|\
DGG GAG|=FDE F2E|DGG GFG|Add cAG|\
DGG GAG|FDE =F2d|cAG FGA|BGG G2::
A|\
BcB BAG|ABA AGF|GAG GFG|A2d cAG|\
BcB BAG|ABA A2d|cAG FGA|BGG G2::
d|\
d2e f2g|a2g fed|cAG FGA|BGB AFD|\
d2e f2g|a2g fed|cAG FGA|BGG G2:|


